!!!OTL: De schwarze Man (2-4), S. 8
!!!id: K1098
**kern
*clefG2
*k[f#]
*G:
{8g
=1
8g
4g
8g
=2yy
8b
=3
4a
4a
=4
8g
8f#
8e
8f#
=5
4g
4d}
=6
{4g
8g
8b
=7
4a
4a
=8
8g
8f#
8e
8f#
=9
2g}
=10
{4b
4b
=11
2cc
=12
4a
4a
=13
2b}
=14
{4g
8g
8b
=15
4a
4a
=16
8g
8f#
8e
8f#
=17
2g}
=18
{4b
4b
=19
2cc
=20
4a
4a
=21
2b}
=22
{4g
8g
8b
=23
4a
4a
=24
8g
8f#
8e
8f#
=25
2g}
==
*-
!!!minrhy: 8
!!!meters: 2/4 ]  ZZ[6
!!!cut: De schwarze Man (2-4), S. 8
!!!reg: Luxemburg
!!!trd: KINTZELE, Guillaume: An der Ucht, Bd. 2, Luxemburg 1927
!!!rhy1:   X_XX  X_X_  XXXX  X_X_
!!!rhy2: X_XX  X_X_  XXXX  X__
!!!key: K1098  08  G 2/4 ]  ZZ[6
!!!mod: HEPTATONIK IONISCH]  AMBITUS[7b
!!!kad: -513131
!!!akz: 1211_1211_3423_1211_3423_1211_
!!!fot: 'a__aw_as"aw_as"aw_
!!!for: 'a__aw_b__aw_b__aw_
!!!fok: 'Md_~__-__~__-__~__
!! PHRAS[VOLLTAKTIG]
!!!fkt: Arbeits-, Berufslied
!! KINTZELE
!! PR[26] 2K[6] 2G[18] 3K[5] 3G[3] 4A[5] 4Ü[0] 5A[0] 6K[0] 6G[0]
!! 7K[0] 7G[0] 8A[0] MEHR[0] SI[37] ABS[62] SR[24] SP[13]
!! ST[12] 2k[13] 2g[16] 3k[0] 3g[5] 4d[0] 4ü[0] 5d[3] 6k[0] 6g[0]
!! 7k[0] 7g[0] 8d[0] mehr[0] si[37] dm[0] sr[29] sp[8]
!! 1F[15] 2F[67] 3F[12] 4F[0] LF[0] 2P[6] 3P[0] 4P[0] TRI[0] DF[4] AB[67]
!! TF[0] U3K[0] U3[2] U4[2] U4Ü[0] U5[13] U6K[0] U6[5] U7K[0] U7[5]
!! N1[21] N2K[0] N2[14] N3K[0] N3[21] N4[10] N4Ü[0] N5[10] N6K[0] N6[0]
!!!n7k: 0] N7[0] O1[0] O2K[0] O2[0] O3K[0] O3[0] HÖ[0
